X:1
T:Out on the ocean
R:Jig
S:Martin Hayes/Randal Bays: Live in Seattle
Z:Gwenael Lambrouin 12/Jan/2004
M:6/8
L:1/8
Q:1/4=120
K:G
|: DBB BAG | BdB ABA | GED G2A | BGB AGE |
   DBB BAG | BdB ABA | GED G2A | BGF G3 :|
|: e2e edB | e2e edB | d2d def | gfe dBA |
   G2A B2d | ege dBA | GED G2A | BGF GBd :|